symbolic/64x64/apps/fluid.svg

<svg xmlns="http://www.w3.org/2000/svg" width="64" height="64" version="1">
 <path style="opacity:0.2" d="M 29.601562,5 C 26.499162,5 24,7.4991626 24,10.601562 l 0,16.796876 c 0,0.36635 0.03894,0.723944 0.10546,1.070312 a 9.4811476,7.7379792 0 0 0 -0.316406,0.398438 L 16.531242,39.132812 9.2695232,49.394532 A 9.4811476,7.7379792 0 0 0 17.480469,61 L 32,61 46.519532,61 A 9.4811476,7.7379792 0 0 0 54.730468,49.394532 L 47.46875,39.132812 40.210938,28.867188 A 9.4811476,7.7379792 0 0 0 39.894532,28.46875 C 39.96107,28.122382 40,27.764788 40,27.398438 L 40,10.601562 C 40,7.4991626 37.500838,5 34.398438,5 l -4.796876,0 z"/>
 <rect style="fill:#e4e4e4" width="16" height="28" x="24" y="4" ry="5.6"/>
 <path style="fill:#e4e4e4" d="m 32.446272,24.008538 a 9.4811476,7.7379792 0 0 0 -8.65563,3.85964 L 16.529827,38.131474 9.2690076,48.394764 A 9.4811476,7.7379792 0 0 0 17.480063,60 l 14.519935,0 14.51994,0 A 9.4811476,7.7379792 0 0 0 54.730994,48.394764 L 47.470174,38.131474 40.211052,27.86818 a 9.4811476,7.7379792 0 0 0 -7.76478,-3.859642 z"/>
 <path style="fill:#578aff" d="m 33,12 a 3,3 0 0 0 -3,3 3,3 0 0 0 3,3 3,3 0 0 0 3,-3 3,3 0 0 0 -3,-3 z"/>
 <path style="fill:#578aff" d="m 29,20 a 3,3 0 0 0 -3,3 3,3 0 0 0 3,3 3,3 0 0 0 3,-3 3,3 0 0 0 -3,-3 z"/>
 <path style="fill:#578aff" d="m 35,26 a 3,3 0 0 0 -3,3 3,3 0 0 0 3,3 3,3 0 0 0 3,-3 3,3 0 0 0 -3,-3 z"/>
 <path style="fill:#578aff" d="m 29,34 a 3,3 0 0 0 -3,3 3,3 0 0 0 3,3 3,3 0 0 0 3,-3 3,3 0 0 0 -3,-3 z"/>
 <path style="fill:#578aff" d="m 21.38677,44.000742 -2.638399,3.978516 C 16.621575,51.18909 19.281049,54.000008 23.535752,54 l 8.464246,0 8.46425,0 c 4.254702,6e-6 6.914176,-2.81091 4.78738,-6.020742 l -2.6384,-3.978516 z"/>
 <path style="opacity:0.2;fill:#ffffff" d="M 29.601562 4 C 26.499162 4 24 6.4991631 24 9.6015625 L 24 10.601562 C 24 7.4991631 26.499162 5 29.601562 5 L 34.398438 5 C 37.500838 5 40 7.4991631 40 10.601562 L 40 9.6015625 C 40 6.4991631 37.500838 4 34.398438 4 L 29.601562 4 z M 24.009766 27.589844 A 9.4811476 7.7379792 0 0 0 23.789062 27.867188 L 16.53125 38.132812 L 9.2695312 48.394531 A 9.4811476 7.7379792 0 0 0 8.0273438 52.826172 A 9.4811476 7.7379792 0 0 1 9.2695312 49.394531 L 16.53125 39.132812 L 23.789062 28.867188 A 9.4811476 7.7379792 0 0 1 24.105469 28.46875 C 24.050674 28.183435 24.020783 27.889013 24.009766 27.589844 z M 39.990234 27.589844 C 39.979219 27.889013 39.949341 28.183435 39.894531 28.46875 A 9.4811476 7.7379792 0 0 1 40.210938 28.867188 L 47.46875 39.132812 L 54.730469 49.394531 A 9.4811476 7.7379792 0 0 1 55.974609 52.820312 A 9.4811476 7.7379792 0 0 0 54.730469 48.394531 L 47.46875 38.132812 L 40.210938 27.867188 A 9.4811476 7.7379792 0 0 0 39.990234 27.589844 z"/>
</svg>

<svg xmlns="http://www.w3.org/2000/svg" width="64" height="64" version="1"><path style="opacity:.2" d="M29.602 5A5.59 5.59 0 0 0 24 10.602v16.796c0 .367.039.724.105 1.07a9.481 7.738 0 0 0-.316.4l-7.258 10.265L9.27 49.395A9.481 7.738 0 0 0 17.48 61h29.04a9.481 7.738 0 0 0 8.21-11.605L47.47 39.133 40.21 28.867a9.481 7.738 0 0 0-.316-.398c.066-.347.105-.704.105-1.07V10.601A5.59 5.59 0 0 0 34.398 5h-4.796z"/><rect style="fill:#e4e4e4" width="16" height="28" x="24" y="4" ry="5.6"/><path style="fill:#e4e4e4" d="M32.446 24.009a9.481 7.738 0 0 0-8.655 3.86L16.53 38.13 9.269 48.395A9.481 7.738 0 0 0 17.48 60h29.04a9.481 7.738 0 0 0 8.211-11.605l-7.26-10.264-7.26-10.263a9.481 7.738 0 0 0-7.765-3.86z"/><path style="fill:#578aff" d="M33 12a3 3 0 0 0-3 3 3 3 0 0 0 3 3 3 3 0 0 0 3-3 3 3 0 0 0-3-3zM29 20a3 3 0 0 0-3 3 3 3 0 0 0 3 3 3 3 0 0 0 3-3 3 3 0 0 0-3-3zM35 26a3 3 0 0 0-3 3 3 3 0 0 0 3 3 3 3 0 0 0 3-3 3 3 0 0 0-3-3zM29 34a3 3 0 0 0-3 3 3 3 0 0 0 3 3 3 3 0 0 0 3-3 3 3 0 0 0-3-3zM21.387 44l-2.639 3.98c-2.126 3.21.533 6.02 4.788 6.02h16.928c4.255 0 6.914-2.81 4.788-6.02L42.613 44z"/><path style="opacity:.2;fill:#fff" d="M29.602 4A5.59 5.59 0 0 0 24 9.602v1A5.59 5.59 0 0 1 29.602 5h4.796A5.59 5.59 0 0 1 40 10.602v-1A5.59 5.59 0 0 0 34.398 4h-4.796zM24.01 27.59a9.481 7.738 0 0 0-.22.277L16.53 38.133 9.27 48.395a9.481 7.738 0 0 0-1.243 4.431 9.481 7.738 0 0 1 1.243-3.431l7.261-10.262 7.258-10.266a9.481 7.738 0 0 1 .316-.398 5.795 5.795 0 0 1-.095-.88zm15.98 0c-.01.299-.04.593-.095.879a9.481 7.738 0 0 1 .316.398l7.258 10.266 7.261 10.262a9.481 7.738 0 0 1 1.245 3.425 9.481 7.738 0 0 0-1.245-4.425L47.47 38.133 40.21 27.867a9.481 7.738 0 0 0-.22-.277z"/></svg>
